projects/cadence/icon/color/cadence-icon-color.svg

<svg xmlns="http://www.w3.org/2000/svg" role="img" viewBox="115.22 27.22 1251.56 1444.56"><path fill="#1c1c2c" fill-rule="evenodd" d="M773.546 56.25c-.216.688-.912 5.663-1.548 11.057-2.136 18.11-8.206 34.482-15.612 42.108-10.838 11.159-30.981 19.247-57.764 23.192-13.226 1.948-29.498 1.444-37.335-1.157-9.7-3.219-25.527-17.802-42.274-38.95-3.484-4.4-6.825-7.853-7.424-7.672-3.327 1-50.516 21.049-58.322 24.779-5.082 2.427-9.926 5.469-10.775 6.766-1.408 2.148-1.313 3.965 1.093 20.741 3.32 23.146 2.999 30.347-1.771 39.769-8.606 17.004-42.018 41.842-67.99 50.545-17.75 5.948-33.516 1.672-60.321-16.358-6.599-4.439-12.519-8.07-13.156-8.07-1.598 0-6.272 3.995-33.55 28.679-13.036 11.797-23.99 22.352-24.34 23.457-.446 1.406.897 4.513 4.468 10.336 7.232 11.792 13.734 25.953 15.647 34.074 4.114 17.467-1.399 34.503-18.518 57.222-18.908 25.093-34.131 35.589-53.527 36.906-9.538.648-19.012-.58-37.167-4.816-7.382-1.722-13.573-2.957-13.759-2.744-.738.841-18.066 32.426-27.357 49.863l-9.845 18.478 17.169 17.022c14.9 14.772 17.604 17.943 20.453 23.984 2.971 6.301 3.327 8.055 3.748 18.5.532 13.189-1.071 23.713-5.915 38.837-13.226 41.287-27.203 53.504-65.397 57.158-24.943 2.387-22.143 1.668-22.798 5.851-3.43 21.922-7.158 70.75-5.695 74.599.944 2.482 3.935 3.867 18.536 8.581 22.146 7.151 34.778 19.606 40.377 39.812 3.197 11.535 4.329 25.209 3.962 47.829l-.339 20.908-4.625 9.563c-2.581 5.335-6.222 11.113-8.239 13.071-1.987 1.931-9.817 6.733-17.398 10.671-16.434 8.537-20.22 11.476-23.648 18.354-4.64 9.312-3.627 19.603 5.536 56.241 2.742 10.964 5.187 20.262 5.433 20.66.247.399 3.259.014 6.695-.855 3.838-.971 10.679-1.594 17.746-1.615 22.017-.066 35.68 6.749 49.291 24.586 18.711 24.52 28.018 56.166 23.633 80.354-2.598 14.331-12.628 28.101-29.816 40.934-4.603 3.437-7.845 6.551-7.588 7.289.51 1.47 39.858 63.735 42.44 67.158l1.693 2.244 9.644-4.105c36.734-15.634 53.676-14.648 76.034 4.43 14.833 12.656 38.097 42.61 41.263 53.129 3.873 12.869.579 27.99-11.968 54.939-3.094 6.645-5.626 12.344-5.626 12.664 0 .7 62.734 49.752 63.63 49.752.346 0 4.733-4.205 9.749-9.345 10.27-10.522 20.602-17.458 31.82-21.359 14.797-5.146 31.736-1.953 57.707 10.876 20.679 10.214 38.06 24.842 43.903 36.946 6.066 12.567 7.334 31.363 3.292 48.805-1.783 7.696-1.946 9.659-.892 10.706.71.705 17.638 6.543 37.618 12.972 42.369 13.633 36.48 14.086 46.733-3.601 8.438-14.555 14.881-22.654 22.736-28.58 6.807-5.135 12.566-7.93 19.607-9.515 15.615-3.515 53.861 2.738 73.597 12.033 14.641 6.895 22.089 15.958 35.189 42.812l7.439 15.25h75.469l2.242-12.25c7.58-41.418 21.421-55.347 64.184-64.591 23.79-5.143 40.95-4.847 52.726.911 7.612 3.72 20.296 15.463 30.766 28.481 14.096 17.525 12.65 17.483 50.457 1.488 24.115-10.202 32.649-14.463 33.992-16.972.765-1.43.397-5.747-1.387-16.257-3.491-20.57-3.835-24.866-2.558-31.969 3.225-17.934 17.253-33.58 45.61-50.87 18.214-11.105 33.643-15.375 47.368-13.109 9.996 1.651 21.23 6.205 31.658 12.831 13.756 8.742 19.668 12.307 20.409 12.307 1.682 0 28.695-23.312 52.311-45.145l6.874-6.355-45.374-44.085c-50.136-48.71-58.317-56.415-59.899-56.415-2.599 0-8.27 4.056-23.351 16.7-72.822 61.055-136.754 96.103-216.629 118.757-43.867 12.442-83.666 18.223-132.496 19.248-70.24 1.473-138.419-9.425-204.595-32.704-137.158-48.248-242.269-138.926-304.057-262.306-26.709-53.334-43.785-106.275-53.839-166.917-4.825-29.106-5.477-40.059-5.462-91.778.015-50.191.149-52.243 5.54-85 9.791-59.488 30.844-121.442 58.595-172.435 24.845-45.651 52.938-83.474 91.205-122.795C548.581 261.331 678.311 206.19 835.5 199.443c32.466-1.393 81.619 3.799 123.5 13.047 37.638 8.31 79.735 22.486 112.043 37.73 40.031 18.887 88.111 49.345 125.957 79.792 14.486 11.654 15.756 12.43 17.722 10.831 6.613-5.38 76.849-99.016 86.057-114.729l2.604-4.444-3.941-3.435c-3.866-3.369-27.942-22.2-48.169-37.675l-10.226-7.824-9.774 7.99c-12.089 9.883-23.571 17.444-31.066 20.456-4.918 1.977-7.434 2.288-18.207 2.25-11.595-.041-13.151-.283-21.5-3.342-10.958-4.014-29.814-13.504-39.849-20.055-13.442-8.775-21.767-19.003-25.668-31.535-.77-2.474-1.481-13.704-1.864-29.44l-.619-25.44-13.5-4.326c-52.059-16.679-55.504-17.573-60.426-15.684-.874.335-4.127 4.723-7.23 9.75-13.815 22.384-26.46 34.694-40.284 39.215-4.484 1.467-7.741 1.633-21.913 1.119-58.135-2.11-75.562-13.164-89.769-56.944L855.565 55h-40.814c-31.775 0-40.9.277-41.205 1.25M818.5 257.101c-69.658 2.533-135.593 19.702-199.569 51.967C472.9 382.715 372.412 523.885 350.621 686c-4.129 30.716-5.302 75.631-2.716 104 12.786 140.293 79.008 261.819 189.569 347.887 69.87 54.391 155.116 89.714 242.662 100.55 32.982 4.083 79.558 4.54 110.864 1.089 67.877-7.483 132.062-27.937 191.007-60.869 36.935-20.636 64.543-41.433 92.874-69.963 13.379-13.473 14.284-14.62 12.989-16.469-5.826-8.319-97.704-102.248-100.001-102.234-.897.005-6.297 4.139-12 9.188-23.639 20.926-50.654 38.71-84.598 55.694-23.344 11.68-42.838 18.889-67.771 25.062-17.971 4.45-30.424 5.984-57.843 7.129-44.114 1.84-80.678-.74-107.157-7.562-40.648-10.473-81.138-28.79-112.5-50.895-23.2-16.351-51.661-43.02-68.414-64.107-34.172-43.011-58.585-95.097-70.112-149.582-6.057-28.632-7.082-95.011-1.956-126.705 7.668-47.409 34.635-109.548 63.382-146.048 10.444-13.261 42.081-44.917 56.1-56.135 45.167-36.14 114.79-65.871 172.22-73.541 42.09-5.622 88.085-3.755 126.28 5.125 48.205 11.208 84.286 28.635 130.906 63.228 16.623 12.335 15.466 12.067 23.094 5.344 11.423-10.067 90.5-97.721 90.5-100.316 0-3.992-32.886-30.797-59.5-48.499-67.772-45.078-150.061-73.139-232.5-79.284-20.501-1.528-35.507-1.786-57.5-.986"/></svg>

<svg xmlns="http://www.w3.org/2000/svg" width="1500" height="1500" viewBox="0 0 1500 1500" version="1.1"><path d="M 773.546 56.250 C 773.330 56.938, 772.634 61.913, 771.998 67.307 C 769.862 85.417, 763.792 101.789, 756.386 109.415 C 745.548 120.574, 725.405 128.662, 698.622 132.607 C 685.396 134.555, 669.124 134.051, 661.287 131.450 C 651.587 128.231, 635.760 113.648, 619.013 92.500 C 615.529 88.100, 612.188 84.647, 611.589 84.828 C 608.262 85.828, 561.073 105.877, 553.267 109.607 C 548.185 112.034, 543.341 115.076, 542.492 116.373 C 541.084 118.521, 541.179 120.338, 543.585 137.114 C 546.905 160.260, 546.584 167.461, 541.814 176.883 C 533.208 193.887, 499.796 218.725, 473.824 227.428 C 456.074 233.376, 440.308 229.100, 413.503 211.070 C 406.904 206.631, 400.984 203, 400.347 203 C 398.749 203, 394.075 206.995, 366.797 231.679 C 353.761 243.476, 342.807 254.031, 342.457 255.136 C 342.011 256.542, 343.354 259.649, 346.925 265.472 C 354.157 277.264, 360.659 291.425, 362.572 299.546 C 366.686 317.013, 361.173 334.049, 344.054 356.768 C 325.146 381.861, 309.923 392.357, 290.527 393.674 C 280.989 394.322, 271.515 393.094, 253.360 388.858 C 245.978 387.136, 239.787 385.901, 239.601 386.114 C 238.863 386.955, 221.535 418.540, 212.244 435.977 L 202.399 454.455 219.568 471.477 C 234.468 486.249, 237.172 489.420, 240.021 495.461 C 242.992 501.762, 243.348 503.516, 243.769 513.961 C 244.301 527.150, 242.698 537.674, 237.854 552.798 C 224.628 594.085, 210.651 606.302, 172.457 609.956 C 147.514 612.343, 150.314 611.624, 149.659 615.807 C 146.229 637.729, 142.501 686.557, 143.964 690.406 C 144.908 692.888, 147.899 694.273, 162.500 698.987 C 184.646 706.138, 197.278 718.593, 202.877 738.799 C 206.074 750.334, 207.206 764.008, 206.839 786.628 L 206.500 807.536 201.875 817.099 C 199.294 822.434, 195.653 828.212, 193.636 830.170 C 191.649 832.101, 183.819 836.903, 176.238 840.841 C 159.804 849.378, 156.018 852.317, 152.590 859.195 C 147.950 868.507, 148.963 878.798, 158.126 915.436 C 160.868 926.400, 163.313 935.698, 163.559 936.096 C 163.806 936.495, 166.818 936.110, 170.254 935.241 C 174.092 934.270, 180.933 933.647, 188 933.626 C 210.017 933.560, 223.680 940.375, 237.291 958.212 C 256.002 982.732, 265.309 1014.378, 260.924 1038.566 C 258.326 1052.897, 248.296 1066.667, 231.108 1079.500 C 226.505 1082.937, 223.263 1086.051, 223.520 1086.789 C 224.030 1088.259, 263.378 1150.524, 265.960 1153.947 L 267.653 1156.191 277.297 1152.086 C 314.031 1136.452, 330.973 1137.438, 353.331 1156.516 C 368.164 1169.172, 391.428 1199.126, 394.594 1209.645 C 398.467 1222.514, 395.173 1237.635, 382.626 1264.584 C 379.532 1271.229, 377 1276.928, 377 1277.248 C 377 1277.948, 439.734 1327, 440.630 1327 C 440.976 1327, 445.363 1322.795, 450.379 1317.655 C 460.649 1307.133, 470.981 1300.197, 482.199 1296.296 C 496.996 1291.150, 513.935 1294.343, 539.906 1307.172 C 560.585 1317.386, 577.966 1332.014, 583.809 1344.118 C 589.875 1356.685, 591.143 1375.481, 587.101 1392.923 C 585.318 1400.619, 585.155 1402.582, 586.209 1403.629 C 586.919 1404.334, 603.847 1410.172, 623.827 1416.601 C 666.196 1430.234, 660.307 1430.687, 670.560 1413 C 678.998 1398.445, 685.441 1390.346, 693.296 1384.420 C 700.103 1379.285, 705.862 1376.490, 712.903 1374.905 C 728.518 1371.390, 766.764 1377.643, 786.500 1386.938 C 801.141 1393.833, 808.589 1402.896, 821.689 1429.750 L 829.128 1445 866.863 1445 L 904.597 1445 906.839 1432.750 C 914.419 1391.332, 928.260 1377.403, 971.023 1368.159 C 994.813 1363.016, 1011.973 1363.312, 1023.749 1369.070 C 1031.361 1372.790, 1044.045 1384.533, 1054.515 1397.551 C 1068.611 1415.076, 1067.165 1415.034, 1104.972 1399.039 C 1129.087 1388.837, 1137.621 1384.576, 1138.964 1382.067 C 1139.729 1380.637, 1139.361 1376.320, 1137.577 1365.810 C 1134.086 1345.240, 1133.742 1340.944, 1135.019 1333.841 C 1138.244 1315.907, 1152.272 1300.261, 1180.629 1282.971 C 1198.843 1271.866, 1214.272 1267.596, 1227.997 1269.862 C 1237.993 1271.513, 1249.227 1276.067, 1259.655 1282.693 C 1273.411 1291.435, 1279.323 1295, 1280.064 1295 C 1281.746 1295, 1308.759 1271.688, 1332.375 1249.855 L 1339.249 1243.500 1293.875 1199.415 C 1243.739 1150.705, 1235.558 1143, 1233.976 1143 C 1231.377 1143, 1225.706 1147.056, 1210.625 1159.700 C 1137.803 1220.755, 1073.871 1255.803, 993.996 1278.457 C 950.129 1290.899, 910.330 1296.680, 861.500 1297.705 C 791.260 1299.178, 723.081 1288.280, 656.905 1265.001 C 519.747 1216.753, 414.636 1126.075, 352.848 1002.695 C 326.139 949.361, 309.063 896.420, 299.009 835.778 C 294.184 806.672, 293.532 795.719, 293.547 744 C 293.562 693.809, 293.696 691.757, 299.087 659 C 308.878 599.512, 329.931 537.558, 357.682 486.565 C 382.527 440.914, 410.620 403.091, 448.887 363.770 C 548.581 261.331, 678.311 206.190, 835.500 199.443 C 867.966 198.050, 917.119 203.242, 959 212.490 C 996.638 220.800, 1038.735 234.976, 1071.043 250.220 C 1111.074 269.107, 1159.154 299.565, 1197 330.012 C 1211.486 341.666, 1212.756 342.442, 1214.722 340.843 C 1221.335 335.463, 1291.571 241.827, 1300.779 226.114 L 1303.383 221.670 1299.442 218.235 C 1295.576 214.866, 1271.500 196.035, 1251.273 180.560 L 1241.047 172.736 1231.273 180.726 C 1219.184 190.609, 1207.702 198.170, 1200.207 201.182 C 1195.289 203.159, 1192.773 203.470, 1182 203.432 C 1170.405 203.391, 1168.849 203.149, 1160.500 200.090 C 1149.542 196.076, 1130.686 186.586, 1120.651 180.035 C 1107.209 171.260, 1098.884 161.032, 1094.983 148.500 C 1094.213 146.026, 1093.502 134.796, 1093.119 119.060 L 1092.500 93.620 1079 89.294 C 1026.941 72.615, 1023.496 71.721, 1018.574 73.610 C 1017.700 73.945, 1014.447 78.333, 1011.344 83.360 C 997.529 105.744, 984.884 118.054, 971.060 122.575 C 966.576 124.042, 963.319 124.208, 949.147 123.694 C 891.012 121.584, 873.585 110.530, 859.378 66.750 L 855.565 55 814.751 55 C 782.976 55, 773.851 55.277, 773.546 56.250 M 818.500 257.101 C 748.842 259.634, 682.907 276.803, 618.931 309.068 C 472.900 382.715, 372.412 523.885, 350.621 686 C 346.492 716.716, 345.319 761.631, 347.905 790 C 360.691 930.293, 426.913 1051.819, 537.474 1137.887 C 607.344 1192.278, 692.590 1227.601, 780.136 1238.437 C 813.118 1242.520, 859.694 1242.977, 891 1239.526 C 958.877 1232.043, 1023.062 1211.589, 1082.007 1178.657 C 1118.942 1158.021, 1146.550 1137.224, 1174.881 1108.694 C 1188.260 1095.221, 1189.165 1094.074, 1187.870 1092.225 C 1182.044 1083.906, 1090.166 989.977, 1087.869 989.991 C 1086.972 989.996, 1081.572 994.130, 1075.869 999.179 C 1052.230 1020.105, 1025.215 1037.889, 991.271 1054.873 C 967.927 1066.553, 948.433 1073.762, 923.500 1079.935 C 905.529 1084.385, 893.076 1085.919, 865.657 1087.064 C 821.543 1088.904, 784.979 1086.324, 758.500 1079.502 C 717.852 1069.029, 677.362 1050.712, 646 1028.607 C 622.800 1012.256, 594.339 985.587, 577.586 964.500 C 543.414 921.489, 519.001 869.403, 507.474 814.918 C 501.417 786.286, 500.392 719.907, 505.518 688.213 C 513.186 640.804, 540.153 578.665, 568.900 542.165 C 579.344 528.904, 610.981 497.248, 625 486.030 C 670.167 449.890, 739.790 420.159, 797.220 412.489 C 839.310 406.867, 885.305 408.734, 923.500 417.614 C 971.705 428.822, 1007.786 446.249, 1054.406 480.842 C 1071.029 493.177, 1069.872 492.909, 1077.500 486.186 C 1088.923 476.119, 1168 388.465, 1168 385.870 C 1168 381.878, 1135.114 355.073, 1108.500 337.371 C 1040.728 292.293, 958.439 264.232, 876 258.087 C 855.499 256.559, 840.493 256.301, 818.500 257.101" stroke="none" fill="#1c1c2c" fill-rule="evenodd"/></svg>
